modules/coreui-icons-free/icons/speaker.svg

<!-- Generated by IcoMoon.io -->
<svg version="1.1" xmlns="http://www.w3.org/2000/svg" width="24" height="24" viewBox="0 0 24 24">
<title>speaker</title>
<path d="M18 0.75h-12c-0.828 0-1.5 0.672-1.5 1.5v0 19.5c0 0.828 0.672 1.5 1.5 1.5v0h12c0.828 0 1.5-0.672 1.5-1.5v0-19.5c0-0.828-0.672-1.5-1.5-1.5v0zM18 21.75h-12v-19.5h12v19.5z"></path>
<path d="M12 11.25c-2.485 0-4.5 2.015-4.5 4.5s2.015 4.5 4.5 4.5c2.485 0 4.5-2.015 4.5-4.5v0c-0.003-2.484-2.016-4.497-4.5-4.5h-0zM12 18.75c-1.657 0-3-1.343-3-3s1.343-3 3-3c1.657 0 3 1.343 3 3v0c-0.002 1.656-1.344 2.998-3 3h-0z"></path>
<path d="M12 9.375c1.657 0 3-1.343 3-3s-1.343-3-3-3c-1.657 0-3 1.343-3 3v0c0.002 1.656 1.344 2.998 3 3h0zM12 4.875c0.828 0 1.5 0.672 1.5 1.5s-0.672 1.5-1.5 1.5c-0.828 0-1.5-0.672-1.5-1.5v0c0-0.828 0.672-1.5 1.5-1.5v0z"></path>
<path d="M11.25 15h1.5v1.5h-1.5v-1.5z"></path>
</svg>

<svg xmlns="http://www.w3.org/2000/svg" width="24" height="24" viewBox="0 0 24 24"><path d="M18 .75H6a1.5 1.5 0 00-1.5 1.5v19.5a1.5 1.5 0 001.5 1.5h12a1.5 1.5 0 001.5-1.5V2.25A1.5 1.5 0 0018 .75zm0 21H6V2.25h12v19.5z"/><path d="M12 11.25a4.5 4.5 0 104.5 4.5 4.505 4.505 0 00-4.5-4.5zm0 7.5a3 3 0 113-3 3.004 3.004 0 01-3 3zM12 9.375a3 3 0 10-3-3 3.004 3.004 0 003 3zm0-4.5a1.5 1.5 0 11-1.5 1.5 1.5 1.5 0 011.5-1.5z"/><path d="M11.25 15h1.5v1.5h-1.5V15z"/></svg>
